X:1     %Music
T:Robin-a-Thrush
B:Broadwood, L, 1893, English County Songs, London, Leadenhall Press
Z:Lucy Broadwood
S:Words and tune from A.H. Frere, Esq: sung by a nurse towards the end of the 18th century
F:http://www.folkinfo.org/songs
M:6/8     %Meter
L:1/8     %
K:G
G G G B B B |A B A G2 z |G G G G A B |d3 A2 
w:Ro-bin he mar-ried a wife in the West, (Mop-pe-ty, mop-pe-ty, mo-no)  
c |(B c) d A B c |B A G F 
w:And she_ turned out to be none of the best, 
E D |G2 G G A B |A2 A A B c |
w:(with a high jig jig-ge-ty, tops and pet-ti-coats, 
B B d e2 c |(B2 A) G3 |]
w:Ro-bin-a-Thrush cries mo--no)